source/img/hashtag.svg

<svg width="136" height="16" viewBox="0 0 136 16" fill="none" xmlns="http://www.w3.org/2000/svg">
<path d="M6.12662 11.195H4.25762L3.50162 14.429H1.25462L2.01062 11.195H0.456617L0.918617 9.158H2.49362L3.01862 6.932H1.50662L1.96862 4.895H3.50162L4.23662 1.871H6.46262L5.74862 4.895H7.61762L8.35262 1.871H10.5786L9.86462 4.895H11.3766L10.8516 6.932H9.38162L8.85662 9.158H10.3056L9.80162 11.195H8.37362L7.61762 14.429H5.37062L6.12662 11.195ZM4.74062 9.158H6.60962L7.13462 6.932H5.26562L4.74062 9.158ZM18.0627 9.431L18.4407 11.93H18.5457L18.9657 9.41L21.7797 0.799999H24.8037L19.3437 15.605H17.2857L11.7837 0.799999H15.1227L18.0627 9.431ZM26.1595 0.799999H29.0365V15.5H26.1595V0.799999ZM38.1958 11.552C38.1958 11.104 38.0278 10.74 37.6918 10.46C37.3698 10.18 36.9568 9.928 36.4528 9.704C35.9628 9.466 35.4238 9.228 34.8358 8.99C34.2618 8.738 33.7228 8.437 33.2188 8.087C32.7288 7.723 32.3158 7.275 31.9797 6.743C31.6578 6.211 31.4968 5.532 31.4968 4.706C31.4968 3.992 31.6158 3.376 31.8538 2.858C32.0918 2.326 32.4278 1.885 32.8618 1.535C33.3098 1.185 33.8348 0.925999 34.4368 0.758C35.0388 0.589999 35.7108 0.505999 36.4528 0.505999C37.3068 0.505999 38.1118 0.582999 38.8678 0.737C39.6238 0.877 40.2468 1.087 40.7368 1.367L39.8338 3.782C39.5258 3.586 39.0638 3.411 38.4478 3.257C37.8318 3.089 37.1668 3.005 36.4528 3.005C35.7808 3.005 35.2628 3.138 34.8988 3.404C34.5488 3.67 34.3738 4.027 34.3738 4.475C34.3738 4.895 34.5348 5.245 34.8568 5.525C35.1928 5.805 35.6058 6.064 36.0958 6.302C36.5998 6.54 37.1388 6.785 37.7128 7.037C38.3008 7.289 38.8398 7.597 39.3298 7.961C39.8338 8.311 40.2468 8.752 40.5688 9.284C40.9048 9.802 41.0728 10.453 41.0728 11.237C41.0728 12.021 40.9398 12.7 40.6738 13.274C40.4218 13.834 40.0578 14.303 39.5818 14.681C39.1198 15.059 38.5528 15.339 37.8808 15.521C37.2228 15.703 36.4948 15.794 35.6968 15.794C34.6468 15.794 33.7228 15.696 32.9248 15.5C32.1268 15.304 31.5388 15.108 31.1608 14.912L32.0848 12.455C32.2388 12.539 32.4348 12.63 32.6728 12.728C32.9248 12.826 33.2048 12.917 33.5128 13.001C33.8208 13.085 34.1428 13.155 34.4788 13.211C34.8288 13.267 35.1858 13.295 35.5498 13.295C36.4038 13.295 37.0548 13.155 37.5028 12.875C37.9648 12.581 38.1958 12.14 38.1958 11.552ZM43.2835 0.799999H46.1605V15.5H43.2835V0.799999ZM59.4148 3.362H55.1308V15.5H52.2538V3.362H47.9488V0.799999H59.4148V3.362ZM67.2553 11.552C67.2553 11.104 67.0873 10.74 66.7513 10.46C66.4293 10.18 66.0163 9.928 65.5123 9.704C65.0223 9.466 64.4833 9.228 63.8953 8.99C63.3213 8.738 62.7823 8.437 62.2783 8.087C61.7883 7.723 61.3753 7.275 61.0393 6.743C60.7173 6.211 60.5563 5.532 60.5563 4.706C60.5563 3.992 60.6753 3.376 60.9133 2.858C61.1513 2.326 61.4873 1.885 61.9213 1.535C62.3693 1.185 62.8943 0.925999 63.4963 0.758C64.0983 0.589999 64.7703 0.505999 65.5123 0.505999C66.3663 0.505999 67.1713 0.582999 67.9273 0.737C68.6833 0.877 69.3063 1.087 69.7963 1.367L68.8933 3.782C68.5853 3.586 68.1233 3.411 67.5073 3.257C66.8913 3.089 66.2263 3.005 65.5123 3.005C64.8403 3.005 64.3223 3.138 63.9583 3.404C63.6083 3.67 63.4333 4.027 63.4333 4.475C63.4333 4.895 63.5943 5.245 63.9163 5.525C64.2523 5.805 64.6653 6.064 65.1553 6.302C65.6593 6.54 66.1983 6.785 66.7723 7.037C67.3603 7.289 67.8993 7.597 68.3893 7.961C68.8933 8.311 69.3063 8.752 69.6283 9.284C69.9643 9.802 70.1323 10.453 70.1323 11.237C70.1323 12.021 69.9993 12.7 69.7333 13.274C69.4813 13.834 69.1173 14.303 68.6413 14.681C68.1793 15.059 67.6123 15.339 66.9403 15.521C66.2823 15.703 65.5543 15.794 64.7563 15.794C63.7063 15.794 62.7823 15.696 61.9843 15.5C61.1863 15.304 60.5983 15.108 60.2203 14.912L61.1443 12.455C61.2983 12.539 61.4943 12.63 61.7323 12.728C61.9843 12.826 62.2643 12.917 62.5723 13.001C62.8803 13.085 63.2023 13.155 63.5383 13.211C63.8883 13.267 64.2453 13.295 64.6093 13.295C65.4633 13.295 66.1143 13.155 66.5623 12.875C67.0243 12.581 67.2553 12.14 67.2553 11.552ZM72.0491 0.799999H80.7641V3.362H74.9261V6.785H80.2391V9.347H74.9261V12.938H80.8691V15.5H72.0491V0.799999ZM83.0207 0.799999C83.3147 0.758 83.6437 0.723 84.0077 0.694999C84.3857 0.666999 84.7707 0.646 85.1627 0.632C85.5547 0.617999 85.9327 0.610999 86.2967 0.610999C86.6747 0.596999 87.0107 0.589999 87.3047 0.589999C88.6067 0.589999 89.7197 0.771999 90.6437 1.136C91.5677 1.5 92.3167 2.011 92.8907 2.669C93.4647 3.327 93.8847 4.111 94.1507 5.021C94.4167 5.931 94.5497 6.932 94.5497 8.024C94.5497 9.018 94.4237 9.977 94.1717 10.901C93.9197 11.825 93.4997 12.644 92.9117 13.358C92.3237 14.072 91.5467 14.646 90.5807 15.08C89.6287 15.514 88.4457 15.731 87.0317 15.731C86.8077 15.731 86.5067 15.724 86.1287 15.71C85.7647 15.696 85.3797 15.675 84.9737 15.647C84.5817 15.633 84.2037 15.612 83.8397 15.584C83.4757 15.57 83.2027 15.549 83.0207 15.521V0.799999ZM87.5357 3.152C87.2277 3.152 86.9127 3.159 86.5907 3.173C86.2827 3.187 86.0517 3.208 85.8977 3.236V13.085C85.9537 13.099 86.0447 13.113 86.1707 13.127C86.3107 13.127 86.4577 13.134 86.6117 13.148C86.7657 13.148 86.9127 13.155 87.0527 13.169C87.1927 13.169 87.2977 13.169 87.3677 13.169C88.1797 13.169 88.8517 13.029 89.3837 12.749C89.9297 12.455 90.3567 12.07 90.6647 11.594C90.9867 11.118 91.2107 10.572 91.3367 9.956C91.4627 9.326 91.5257 8.682 91.5257 8.024C91.5257 7.45 91.4697 6.876 91.3577 6.302C91.2457 5.714 91.0357 5.189 90.7277 4.727C90.4337 4.265 90.0277 3.887 89.5097 3.593C88.9917 3.299 88.3337 3.152 87.5357 3.152ZM96.1554 8.15C96.1554 5.7 96.6944 3.817 97.7724 2.501C98.8504 1.171 100.39 0.505999 102.392 0.505999C103.442 0.505999 104.359 0.687999 105.143 1.052C105.927 1.416 106.578 1.934 107.096 2.606C107.614 3.278 107.999 4.083 108.251 5.021C108.503 5.959 108.629 7.002 108.629 8.15C108.629 10.6 108.083 12.49 106.991 13.82C105.913 15.136 104.38 15.794 102.392 15.794C101.328 15.794 100.404 15.612 99.6204 15.248C98.8364 14.884 98.1854 14.366 97.6674 13.694C97.1634 13.022 96.7854 12.217 96.5334 11.279C96.2814 10.341 96.1554 9.298 96.1554 8.15ZM99.1794 8.15C99.1794 8.892 99.2424 9.578 99.3684 10.208C99.4944 10.824 99.6834 11.356 99.9354 11.804C100.201 12.252 100.537 12.602 100.943 12.854C101.349 13.106 101.832 13.232 102.392 13.232C103.414 13.232 104.205 12.833 104.765 12.035C105.325 11.237 105.605 9.942 105.605 8.15C105.605 7.436 105.542 6.771 105.416 6.155C105.304 5.539 105.122 5 104.87 4.538C104.618 4.076 104.289 3.719 103.883 3.467C103.477 3.201 102.98 3.068 102.392 3.068C101.37 3.068 100.579 3.481 100.019 4.307C99.4594 5.119 99.1794 6.4 99.1794 8.15ZM114.34 7.835L113.185 5.525H113.08L113.416 7.835V15.5H110.686V0.694999H112.786L118.351 8.528L119.464 10.775H119.569L119.233 8.528V0.799999H121.963V15.605H119.863L114.34 7.835ZM131.733 12.245H127.218L126.105 15.5H123.228L128.52 0.694999H130.641L135.933 15.5H132.909L131.733 12.245ZM127.953 9.935H131.103L130.011 6.659L129.57 4.349H129.465L129.024 6.68L127.953 9.935Z" fill="black"/>
</svg>

<svg width="136" height="16" fill="none" xmlns="http://www.w3.org/2000/svg"><path d="M6.127 11.195h-1.87l-.755 3.234H1.255l.756-3.234H.457l.462-2.037h1.575l.525-2.226H1.507l.462-2.037h1.533l.735-3.024h2.226l-.714 3.024h1.869l.735-3.024h2.226l-.714 3.024h1.512l-.525 2.037h-1.47l-.525 2.226h1.449l-.504 2.037H8.374l-.756 3.234H5.37l.756-3.234ZM4.74 9.158H6.61l.525-2.226h-1.87l-.524 2.226Zm13.322.273.378 2.499h.105l.42-2.52L21.78.8h3.024l-5.46 14.805h-2.058L11.784.8h3.339l2.94 8.631ZM26.16.8h2.877v14.7H26.16V.8Zm12.036 10.752c0-.448-.168-.812-.504-1.092-.322-.28-.735-.532-1.24-.756a26.28 26.28 0 0 0-1.616-.714 9.575 9.575 0 0 1-1.617-.903 4.949 4.949 0 0 1-1.24-1.344c-.321-.532-.482-1.211-.482-2.037 0-.714.119-1.33.357-1.848a3.513 3.513 0 0 1 1.008-1.323c.448-.35.973-.609 1.575-.777a7.495 7.495 0 0 1 2.016-.252c.854 0 1.659.077 2.415.231.756.14 1.379.35 1.869.63l-.903 2.415c-.308-.196-.77-.371-1.386-.525a7.56 7.56 0 0 0-1.995-.252c-.672 0-1.19.133-1.554.399-.35.266-.525.623-.525 1.071 0 .42.16.77.483 1.05.336.28.749.539 1.239.777.504.238 1.043.483 1.617.735.588.252 1.127.56 1.617.924.504.35.917.791 1.239 1.323.336.518.504 1.169.504 1.953s-.133 1.463-.4 2.037a3.719 3.719 0 0 1-1.091 1.407c-.462.378-1.03.658-1.701.84a8.182 8.182 0 0 1-2.184.273c-1.05 0-1.974-.098-2.772-.294-.798-.196-1.386-.392-1.764-.588l.924-2.457c.154.084.35.175.588.273.252.098.532.189.84.273.308.084.63.154.966.21.35.056.707.084 1.07.084.855 0 1.506-.14 1.954-.42.462-.294.693-.735.693-1.323ZM43.283.8h2.877v14.7h-2.877V.8Zm16.132 2.562H55.13V15.5h-2.877V3.362h-4.305V.8h11.466v2.562Zm7.84 8.19c0-.448-.168-.812-.504-1.092-.322-.28-.735-.532-1.239-.756a26.28 26.28 0 0 0-1.617-.714 9.575 9.575 0 0 1-1.617-.903 4.947 4.947 0 0 1-1.239-1.344c-.322-.532-.483-1.211-.483-2.037 0-.714.12-1.33.357-1.848a3.513 3.513 0 0 1 1.008-1.323c.448-.35.973-.609 1.575-.777a7.495 7.495 0 0 1 2.016-.252c.854 0 1.66.077 2.415.231.756.14 1.38.35 1.87.63l-.904 2.415c-.308-.196-.77-.371-1.386-.525a7.56 7.56 0 0 0-1.995-.252c-.672 0-1.19.133-1.554.399-.35.266-.525.623-.525 1.071 0 .42.161.77.483 1.05.336.28.75.539 1.24.777.503.238 1.042.483 1.616.735.588.252 1.127.56 1.617.924.504.35.917.791 1.24 1.323.335.518.503 1.169.503 1.953S70 12.7 69.733 13.274a3.719 3.719 0 0 1-1.092 1.407c-.462.378-1.029.658-1.7.84a8.182 8.182 0 0 1-2.185.273c-1.05 0-1.974-.098-2.772-.294-.798-.196-1.386-.392-1.764-.588l.924-2.457c.154.084.35.175.588.273.252.098.532.189.84.273.308.084.63.154.966.21.35.056.707.084 1.071.084.854 0 1.505-.14 1.953-.42.462-.294.693-.735.693-1.323ZM72.05.8h8.715v2.562h-5.838v3.423h5.313v2.562h-5.313v3.591h5.943V15.5h-8.82V.8Zm10.972 0c.294-.042.623-.077.987-.105a30.255 30.255 0 0 1 2.289-.084A27.56 27.56 0 0 1 87.305.59c1.302 0 2.415.182 3.339.546.924.364 1.673.875 2.247 1.533.574.658.994 1.442 1.26 2.352.266.91.399 1.911.399 3.003 0 .994-.126 1.953-.378 2.877a6.51 6.51 0 0 1-1.26 2.457c-.588.714-1.365 1.288-2.331 1.722-.952.434-2.135.651-3.55.651-.223 0-.524-.007-.902-.021a38.12 38.12 0 0 1-1.155-.063c-.392-.014-.77-.035-1.134-.063a7.843 7.843 0 0 1-.82-.063V.8Zm4.515 2.352c-.308 0-.623.007-.945.021a5.638 5.638 0 0 0-.693.063v9.849c.056.014.147.028.273.042.14 0 .287.007.44.021.155 0 .302.007.442.021h.315c.812 0 1.484-.14 2.016-.42a3.42 3.42 0 0 0 1.28-1.155 4.498 4.498 0 0 0 .673-1.638c.126-.63.189-1.274.189-1.932 0-.574-.056-1.148-.168-1.722a4.234 4.234 0 0 0-.63-1.575 3.4 3.4 0 0 0-1.218-1.134c-.518-.294-1.176-.441-1.974-.441Zm8.62 4.998c0-2.45.538-4.333 1.616-5.649 1.078-1.33 2.618-1.995 4.62-1.995 1.05 0 1.967.182 2.751.546a5.182 5.182 0 0 1 1.953 1.554c.518.672.903 1.477 1.155 2.415s.378 1.981.378 3.129c0 2.45-.546 4.34-1.638 5.67-1.078 1.316-2.611 1.974-4.599 1.974-1.064 0-1.988-.182-2.772-.546a5.182 5.182 0 0 1-1.953-1.554c-.504-.672-.882-1.477-1.134-2.415-.252-.938-.378-1.981-.378-3.129Zm3.023 0c0 .742.063 1.428.19 2.058.125.616.314 1.148.566 1.596.266.448.602.798 1.008 1.05s.889.378 1.449.378c1.022 0 1.813-.399 2.373-1.197.56-.798.84-2.093.84-3.885 0-.714-.063-1.379-.189-1.995a5.361 5.361 0 0 0-.546-1.617 2.813 2.813 0 0 0-.987-1.071c-.406-.266-.903-.399-1.491-.399-1.022 0-1.813.413-2.373 1.239-.56.812-.84 2.093-.84 3.843Zm15.161-.315-1.155-2.31h-.105l.336 2.31V15.5h-2.73V.695h2.1l5.565 7.833 1.113 2.247h.105l-.336-2.247V.8h2.73v14.805h-2.1l-5.523-7.77Zm17.393 4.41h-4.515l-1.113 3.255h-2.877L128.52.695h2.121l5.292 14.805h-3.024l-1.176-3.255Zm-3.78-2.31h3.15l-1.092-3.276-.441-2.31h-.105l-.441 2.331-1.071 3.255Z" fill="#000"/></svg>
